assets/Running shoe/Flat/running_shoe_flat.svg

<svg width="32" height="32" viewBox="0 0 32 32" fill="none" xmlns="http://www.w3.org/2000/svg">
<path d="M18.5 11.41L14.79 7.69995L15.22 7.26995C16.73 5.75995 19.3 6.36995 19.97 8.38995L21.68 12.89L18.5 11.41Z" fill="#635994"/>
<path d="M26.3202 23.53L21.2702 11.74C21.0102 11.13 21.1002 11.04 20.6302 10.57L20.1102 10.05C19.7002 9.64 19.0302 9.64 18.6202 10.05C18.2102 10.46 17.5402 10.46 17.1302 10.05L12.7002 5.60999C12.2902 5.19999 12.2902 4.52999 12.7002 4.11999C13.1102 3.70999 13.1102 3.04 12.7002 2.63L12.6802 2.61C11.8602 1.79 10.5202 1.79 9.7002 2.61L2.3502 9.97C1.9002 10.42 1.9002 11.15 2.3502 11.6L23.1702 28.84C23.6202 29.29 27.8402 29.7 28.2902 29.25L29.1102 28.69C32.2002 25.97 27.0702 25.27 26.3202 23.53Z" fill="#9B9B9B"/>
<path fill-rule="evenodd" clip-rule="evenodd" d="M18.7402 14.1001C18.5502 13.9101 18.4302 13.6501 18.4302 13.3601C18.4302 12.7801 18.9002 12.3101 19.4802 12.3101H21.9202C22.5002 12.3101 22.9702 12.7801 22.9702 13.3601C22.9702 13.9401 22.5002 14.4101 21.9202 14.4101H19.4802C19.2002 14.4101 18.9302 14.2901 18.7402 14.1001ZM20.3301 17.4401C20.1401 17.2501 20.0201 16.9901 20.0201 16.7001C20.0201 16.1201 20.4901 15.6501 21.0701 15.6501H23.5101C24.0901 15.6501 24.5601 16.1201 24.5601 16.7001C24.5601 17.2801 24.0901 17.7501 23.5101 17.7501H21.0701C20.7901 17.7501 20.5201 17.6301 20.3301 17.4401ZM21.3401 20.2301C21.3401 20.5201 21.4601 20.7801 21.6501 20.9701C21.8401 21.1601 22.1001 21.2701 22.3901 21.2801H24.8301C25.4101 21.2801 25.8801 20.8101 25.8801 20.2301C25.8801 19.6501 25.4101 19.1801 24.8301 19.1801H22.3901C21.8101 19.1801 21.3401 19.6501 21.3401 20.2301Z" fill="#E6E6E6"/>
<path d="M7.3402 4.96997L12.3502 10.08C13.5302 11.29 14.1902 12.91 14.1902 14.61L14.1802 17.54L4.2002 8.06997L7.3402 4.96997Z" fill="#635994"/>
<path d="M26.1999 29.8C26.1999 29.8 22.1999 29.4 17.2699 26.07C12.9399 23.16 2.34988 11.6 2.34988 11.6C1.88988 11.14 1.88988 10.39 2.34988 9.93002L5.25988 7.02002C5.25988 7.02002 14.3099 15.58 15.7199 19.97C18.2599 27.93 29.2399 28.66 29.2399 28.66L28.5399 29.36C28.0799 29.82 27.4499 30 26.1999 29.8Z" fill="#BEBEBE"/>
</svg>

<svg xmlns="http://www.w3.org/2000/svg" width="32" height="32" fill="none"><path fill="#635994" d="M18.5 11.41 14.79 7.7l.43-.43c1.51-1.51 4.08-.9 4.75 1.12l1.71 4.5-3.18-1.48Z"/><path fill="#9B9B9B" d="m26.32 23.53-5.05-11.79c-.26-.61-.17-.7-.64-1.17l-.52-.52c-.41-.41-1.08-.41-1.49 0-.41.41-1.08.41-1.49 0L12.7 5.61c-.41-.41-.41-1.08 0-1.49.41-.41.41-1.08 0-1.49l-.02-.02c-.82-.82-2.16-.82-2.98 0L2.35 9.97c-.45.45-.45 1.18 0 1.63l20.82 17.24c.45.45 4.67.86 5.12.41l.82-.56c3.09-2.72-2.04-3.42-2.79-5.16Z"/><path fill="#E6E6E6" fill-rule="evenodd" d="M18.74 14.1c-.19-.19-.31-.45-.31-.74 0-.58.47-1.05 1.05-1.05h2.44a1.05 1.05 0 1 1 0 2.1h-2.44c-.28 0-.55-.12-.74-.31Zm1.59 3.34c-.19-.19-.31-.45-.31-.74 0-.58.47-1.05 1.05-1.05h2.44a1.05 1.05 0 1 1 0 2.1h-2.44c-.28 0-.55-.12-.74-.31Zm1.01 2.79c0 .29.12.55.31.74.19.19.45.3.74.31h2.44a1.05 1.05 0 1 0 0-2.1h-2.44c-.58 0-1.05.47-1.05 1.05Z" clip-rule="evenodd"/><path fill="#635994" d="m7.34 4.97 5.01 5.11a6.477 6.477 0 0 1 1.84 4.53l-.01 2.93L4.2 8.07l3.14-3.1Z"/><path fill="#BEBEBE" d="M26.2 29.8s-4-.4-8.93-3.73C12.94 23.16 2.35 11.6 2.35 11.6c-.46-.46-.46-1.21 0-1.67l2.91-2.91s9.05 8.56 10.46 12.95c2.54 7.96 13.52 8.69 13.52 8.69l-.7.7c-.46.46-1.09.64-2.34.44Z"/></svg>
